!! 00000] TT[WS
!!!OTL: Bai Yueer
!!!ARE: Asia, China, Shanxi Qixian
!! Ethnic Group: Han
!! WI, 154
!!!SCT: J0186
!!!YEM: Copyright 1995, estate of Helmut Schaffrath.
**kern
*ICvox
*Ivox
*M2/4
*k[f#]
*G:
{8b
4b
8b
=1
8dd
16b
16a
16b
16dd
16b
16a
=2
4g
8b
8dd
=3
8b
16b
16a
16g
16d
16e
16d
=4
2B}
=5
{8b
8b
16b
16dd
16b
16a
=6
8b
16e
16d
4B
=7
8b
8b
16b
16dd
16b
16a
=8
8b
16e
16d
4B}
=9
{8b
16e
16d
4B
=10
8b
4b
16dd
16dd
=11
16b
16dd
16b
16a
8.g
16e
=12
8b
16b
16b
8b
8e
=13
8g
16g
16e
8d
[8d
=14
4d]
4r}
==
!!!AGN: Xiaodiao. Qingge
!!!ONB: ESAC (Essen Associative Code) Database: CHINA
!!!AMT: simple duple
!!!AIN: vox
!!!EED: Helmut Schaffrath
!!!EEV: 1.0
*-
!!!ONB: Tied note syntax fixed by Craig Sapp, 2004/05/03/
